icons/svg/printer-3d.svg

﻿<?xml version="1.0" encoding="utf-8"?>
<!DOCTYPE svg PUBLIC "-//W3C//DTD SVG 1.1//EN" "http://www.w3.org/Graphics/SVG/1.1/DTD/svg11.dtd">
<svg xmlns="http://www.w3.org/2000/svg" xmlns:xlink="http://www.w3.org/1999/xlink" version="1.1" baseProfile="full" width="24" height="24" viewBox="0 0 24.00 24.00" enable-background="new 0 0 24.00 24.00" xml:space="preserve">
	<path fill="#000000" fill-opacity="1" stroke-width="0.2" stroke-linejoin="round" d="M 19,6C 19.553,6 20,5.553 20,5C 20,4.447 19.553,4 19,4C 18.447,4 18,4.447 18,5C 18,5.553 18.447,6 19,6 Z M 19,2.00001C 20.657,2.00001 22,3.343 22,5L 22,11L 18.0006,11L 18.0006,7.00193L 6.00061,7.00193L 6,11L 2,11L 2,5C 2,3.344 3.344,2.00001 5,2.00001L 19,2.00001 Z M 17.9994,18.25C 17.9994,18.6312 17.7861,18.9625 17.4724,19.1313L 12.5657,21.8243C 12.4047,21.9351 12.2096,22 11.9994,22C 11.7891,22 11.594,21.9351 11.433,21.8242L 6.52655,19.1314C 6.21274,18.9627 5.99939,18.6312 5.99939,18.25L 5.99939,13C 5.99939,12.6188 6.21273,12.2873 6.52655,12.1186L 11.433,9.67575C 11.594,9.5649 11.7891,9.5 11.9994,9.5C 12.2096,9.5 12.4047,9.56489 12.5658,9.67573L 17.4724,12.1187C 17.7861,12.2875 17.9994,12.6188 17.9994,13L 17.9994,18.25 Z M 12.0003,11.6509L 9.04063,13L 12.0003,14.5991L 14.9585,13L 12.0003,11.6509 Z M 7.99939,17.6649L 10.9994,19.2866L 10.9994,16.3306L 7.99939,14.709L 7.99939,17.6649 Z M 15.9994,17.6649L 15.9994,14.709L 12.9994,16.3306L 12.9994,19.2875L 15.9994,17.6649 Z "/>
</svg>

<svg xmlns="http://www.w3.org/2000/svg" version="1.1" baseProfile="full" width="24" height="24" viewBox="0 0 24.00 24.00" xml:space="preserve"><path fill="#000" fill-opacity="1" stroke-width=".2" stroke-linejoin="round" d="M19 6c.553 0 1-.447 1-1 0-.553-.447-1-1-1-.553 0-1 .447-1 1 0 .553.447 1 1 1zm0-4c1.657 0 3 1.343 3 3v6h-4V7.002H6V11H2V5c0-1.656 1.344-3 3-3h14zm-1 16.25c0 .38-.214.712-.528.88l-4.906 2.694c-.16.11-.356.176-.567.176-.21 0-.406-.065-.567-.176L6.527 19.13c-.314-.167-.528-.5-.528-.88V13c0-.38.213-.713.527-.88l4.906-2.444c.16-.11.356-.176.566-.176.21 0 .405.065.566.176l4.906 2.443c.314.168.527.5.527.88v5.25zm-6-6.6L9.04 13 12 14.6l2.96-1.6-2.96-1.35zm-4 6.015l3 1.622V16.33l-3-1.62v2.955zm8 0V14.71l-3 1.62v2.958l3-1.623z"/></svg>
